X:1
T: Sir Charles Douglas
C:Nathaniel Gow
R:Strathspey
Q: 128
K:D
M:4/4
L:1/16
|:B2|AD3 F3D AD3 D3B|AD3 F3D FGA2 d4|AD3 F3D AD3 A3F|GB3 Fd3 EEE2 B4|
AD3 F3D AD3 D3B|AD3 F3D FGA2 d4|AD3 F3D AD3 A3F|GB3 Fd3 EEE2 B4|
Ad3 d3f e3d c3B|Ad3 d3f e3f g3e|Ad3 d3f e3c d3A|Bd3 Fd3 EEE2 B4|
Ad3 d3f e3d c3B|Ad3 d3f e3f g2fe|fa3 ef3 df3 Bd3|Ad3 Fd3 D6:|
